X:1
T:Bound Down to Newfoundland
M:4/4
L:1/8
K:C
G-E| C3- DE-D C2| F2 _B2 A2G-E| C2E-D C2 D-E/2-D/2| C6G-A|_B-AG-AB-c d2|\
c/2-d/2 c2 _B G2G-A|_B-A G2d/2-c/2 BG-E| F6 GA|c/2-_B/2 AG-AB-c d2|\
 c3/2-d/2-c/2-d/2 _B G2(2F3.99999962500005/5.99999925000009F3.99999962500005/5.99999925000009G3.99999962500005/5.99999925000009 A3.99999962500005/5.99999925000009|\
_B-A G2d/2-c/2 BA/2-G/2 E| F6G-E| C3 DF/2-E/2 D C2| F2 _B2 A2G-E| C2F/2-E/2 D C2 C2|\
 C4 z2||
